web/workspace/public/assets/network/dadi-network_stargate-black.svg

<svg viewBox="0 0 150 150" xmlns="http://www.w3.org/2000/svg"><g fill="none" stroke="#04111c" stroke-miterlimit="10" stroke-width="5"><circle cx="75" cy="74.3" r="38.9"/><circle cx="75" cy="74.3" r="50.3"/><path d="m75 24v11.4m0 79.2v11.4m51-51h-11.4m-79.2 0h-11.4m87.1 36.1-8.1-8.1m-56-56-8.1-8.1m0 72.2 18-18.8h34.2v-18h-32.2v-18h34.2l9.9-9.3 8.1-8.1"/></g></svg>

<svg xmlns="http://www.w3.org/2000/svg" viewBox="0 0 150 150"><style>.st0{fill:#04111d}.st1{fill:#fff}.st2,.st3,.st4{fill:none;stroke:#fff;stroke-width:4;stroke-miterlimit:10}.st3,.st4{stroke:#04111c;stroke-width:5}.st4{stroke:#0ecc5f;stroke-width:4}</style><g id="icons"><circle class="st3" cx="75" cy="74.3" r="38.9"/><circle class="st3" cx="75" cy="74.3" r="50.3"/><path class="st3" d="M75 24v11.4M75 114.6V126M126 75h-11.4M35.4 75H24M111.1 111.1L103 103M47 47l-8.1-8.1M38.9 111.1l18-18.8h34.2v-18H58.9v-18h34.2L103 47l8.1-8.1"/></g></svg>
